screen-record/public/cursor-pointer-jepriwin11.svg

<svg xmlns="http://www.w3.org/2000/svg" width="44" height="43" viewBox="0 0 44 43">
  <defs><clipPath id="clip_jepriwin11_03"><rect x="0" y="0" width="44" height="43"/></clipPath></defs>
  <g clip-path="url(#clip_jepriwin11_03)">
    <svg x="4.08" y="10.18" width="43.12" height="42.14" viewBox="358.9 -123.3 262.5 258.9667" preserveAspectRatio="xMidYMid meet" style="overflow:hidden">
      <path style="stroke: rgb(0, 0, 0); stroke-linecap: round; stroke-miterlimit: 9.06; stroke-dashoffset: -1px; paint-order: stroke; stroke-width: 11px;" d="M 469 -58.5 C 480.6 -57.9 476.9 -40.8 477.2 -31.7 C 487.5 -28.7 508.2 -28.7 513.6 -20.5 C 518 -12.5 517.4 6.9 515.9 15.7 C 512.5 35.3 495.1 43.1 477.7 39.3 C 476.1 38.9 474.3 38.1 472.8 37.3 C 468 34.6 441.6 8.7 440.5 4 C 440.053 2.204 440.419 0.302 441.5 -1.2 C 442.5 -2.7 444.1 -4.2 445.9 -4.4 C 451.3 -5.2 458.3 4.3 462.5 7.3 L 462.9 7.6 C 462.9 -2.7 461.555 -51.211 463.9 -54.2 C 464.551 -55.549 465.201 -58.078 469 -58.5 Z" fill="#FCFCFB"/>
    </svg>
  </g>
</svg>

<svg xmlns="http://www.w3.org/2000/svg" width="44" height="43" viewBox="0 0 44 43">
  <defs><clipPath id="clip_jepriwin11_03"><rect x="0" y="0" width="44" height="43"/></clipPath></defs>
  <g clip-path="url(#clip_jepriwin11_03)">
    <svg x="4.08" y="10.18" width="43.12" height="42.14" viewBox="358.9 -123.3 262.5 258.9667" preserveAspectRatio="xMidYMid meet" style="overflow:hidden">
<path style="stroke-width:1" d="M469-58.5c11.6.6 7.9 17.7 8.2 26.8 10.3 3 31 3 36.4 11.2 4.4 8 3.8 27.4 2.3 36.2-3.4 19.6-20.8 27.4-38.2 23.6-1.6-.4-3.4-1.2-4.9-2C468 34.6 441.6 8.7 440.5 4a6.3 6.3 0 0 1 1-5.2c1-1.5 2.6-3 4.4-3.2 5.4-.8 12.4 8.7 16.6 11.7l.4.3c0-10.3-1.2-55.6 1-61.8.9-2.4 2.9-3.4 5-4.4Z" fill="#FCFCFB"/>
    </svg>
  </g>
</svg>
